X: 1989
T: Wooden Whistle
B: australian traditional tunes wiki
M:3/8
L:1/16
R: Jig
Q: 3/8=100
K:G
V:1 
|:"G"G4D2|| \\
"G"G2A2B2 c2B2A2|"Em"G2E2E2 E4D2|B,2D2D2 E4D2|B,2D2D2 E4D2|
"G"G2A2B2 c2B2A2|"Em"G2E2E2 E4D2|B,2D2D2 E4D2|B,2D2D2 E4D2|
"G"B2d2d2 "C"c2e2e2|"G"B2d2d2 "D"A2c2c2|"G"G2A2B2 c2B2A2|"Em"G2E2E2 E4D2|
"G"B2d2d2 "C"c2e2e2|"G"B2d2d2 "D"A2c2c2|"G"G2A2B2 c2B2A2|"Em"G2E2E2 E4D2|B,2D2D2 E4D2|"D7"D2E2F4<"G"G4|
% abcbook-tune_id 6342d5bed42d74c88545591c


% abcbook-boost 0
% abcbook-tablature 
% abcbook-transpose 
% abcbook-lastupdated 1665324492763
% abcbook-soundfonts 
% abcbook-repeats 1
% NFF Book 2017

